Resources/Icons/PCGEx_Editor_RotOrder_Z.svg

<?xml version="1.0" encoding="UTF-8"?>
<svg id="icons" xmlns="http://www.w3.org/2000/svg" viewBox="0 0 100 100">
  <defs>
    <style>
      .cls-1 {
        fill: #2c80ed;
      }
    </style>
  </defs>
  <path d="M58.73,68.63h-16.1c-1.93,0-3.38-1.45-3.38-3.19,0-.61.42-1.6.66-2.07,4.6-7.61,8.64-14.09,13.29-21.79h-10.61c-1.83,0-3.24-1.32-3.24-3.01s1.41-3.05,3.24-3.05h15.92c1.97,0,3.43,1.41,3.43,3.15,0,.85-.33,1.5-.66,2.02l-13.38,21.88h10.85c1.74,0,3.29,1.32,3.29,3.01s-1.5,3.05-3.29,3.05Z"/>
  <path class="cls-1" d="M57.37,66.58h-16.1c-1.93,0-3.38-1.45-3.38-3.19,0-.61.42-1.6.66-2.07,4.6-7.61,8.64-14.09,13.29-21.79h-10.61c-1.83,0-3.24-1.32-3.24-3.01s1.41-3.05,3.24-3.05h15.92c1.97,0,3.43,1.41,3.43,3.15,0,.85-.33,1.5-.66,2.02l-13.38,21.88h10.85c1.74,0,3.29,1.32,3.29,3.01s-1.5,3.05-3.29,3.05Z"/>
</svg>

<svg id="icons" xmlns="http://www.w3.org/2000/svg" viewBox="0 0 100 100">
    <defs>
        <style>.cls-1{fill:#2c80ed;}</style>
    </defs>
    <path d="M58.73,68.63H42.63a3.27,3.27,0,0,1-3.39-3.19,6.06,6.06,0,0,1,.66-2.07c4.6-7.6,8.64-14.08,13.29-21.78H42.58a3.09,3.09,0,0,1-3.24-3,3.15,3.15,0,0,1,3.24-3H58.5a3.24,3.24,0,0,1,3.42,3.14,3.65,3.65,0,0,1-.65,2L47.88,62.57H58.73a3,3,0,1,1,0,6.06Z"/>
    <path class="cls-1"
          d="M57.37,66.58H41.26a3.26,3.26,0,0,1-3.38-3.19,6,6,0,0,1,.65-2.07c4.61-7.6,8.65-14.08,13.29-21.78H41.21a3.09,3.09,0,0,1-3.24-3,3.15,3.15,0,0,1,3.24-3.05H57.13a3.25,3.25,0,0,1,3.43,3.14,3.65,3.65,0,0,1-.66,2L46.52,60.53H57.37a3,3,0,1,1,0,6Z"/>
</svg>
